img/servicios-locucion-icon.svg

<svg width="36" height="55" viewBox="0 0 36 55" fill="none" xmlns="http://www.w3.org/2000/svg">
<path d="M34.3636 20.625H32.7273C31.8232 20.625 31.0909 21.3941 31.0909 22.3438V27.5C31.0909 35.5352 24.4953 41.9826 16.6919 41.1834C9.8908 40.4862 4.90909 34.0646 4.90909 26.8877V22.3438C4.90909 21.3941 4.17682 20.625 3.27273 20.625H1.63636C0.732273 20.625 0 21.3941 0 22.3438V26.6578C0 36.2871 6.54239 44.8712 15.5455 46.1753V49.8438H9.81818C8.91409 49.8438 8.18182 50.6129 8.18182 51.5625V53.2812C8.18182 54.2309 8.91409 55 9.81818 55H26.1818C27.0859 55 27.8182 54.2309 27.8182 53.2812V51.5625C27.8182 50.6129 27.0859 49.8438 26.1818 49.8438H20.4545V46.2161C29.2203 44.9528 36 37.0498 36 27.5V22.3438C36 21.3941 35.2677 20.625 34.3636 20.625ZM18 37.8125C23.4225 37.8125 27.8182 33.1955 27.8182 27.5H19.0912C18.4889 27.5 18 27.1154 18 26.6406V24.9219C18 24.4471 18.4889 24.0625 19.0912 24.0625H27.8182V20.625H19.0912C18.4889 20.625 18 20.2404 18 19.7656V18.0469C18 17.5721 18.4889 17.1875 19.0912 17.1875H27.8182V13.75H19.0912C18.4889 13.75 18 13.3654 18 12.8906V11.1719C18 10.6971 18.4889 10.3125 19.0912 10.3125H27.8182C27.8182 4.61699 23.4225 0 18 0C12.5775 0 8.18182 4.61699 8.18182 10.3125V27.5C8.18182 33.1955 12.5775 37.8125 18 37.8125Z" fill="#C3B214"/>
</svg>

<svg width="36" height="55" fill="none" xmlns="http://www.w3.org/2000/svg"><path d="M34.364 20.625h-1.637c-.904 0-1.636.77-1.636 1.719V27.5c0 8.035-6.596 14.483-14.4 13.683-6.8-.697-11.782-7.118-11.782-14.295v-4.544c0-.95-.732-1.719-1.636-1.719H1.636c-.904 0-1.636.77-1.636 1.719v4.314c0 9.63 6.542 18.213 15.546 19.517v3.669H9.818c-.904 0-1.636.769-1.636 1.718v1.72c0 .949.732 1.718 1.636 1.718h16.364c.904 0 1.636-.77 1.636-1.719v-1.718c0-.95-.732-1.72-1.636-1.72h-5.727v-3.627C29.22 44.953 36 37.05 36 27.5v-5.156c0-.95-.732-1.719-1.636-1.719zM18 37.813c5.422 0 9.818-4.617 9.818-10.313h-8.727c-.602 0-1.091-.385-1.091-.86v-1.718c0-.475.489-.86 1.091-.86h8.727v-3.437h-8.727c-.602 0-1.091-.385-1.091-.86v-1.718c0-.475.489-.86 1.091-.86h8.727V13.75h-8.727c-.602 0-1.091-.385-1.091-.86v-1.718c0-.475.489-.86 1.091-.86h8.727C27.818 4.617 23.422 0 18 0S8.182 4.617 8.182 10.313V27.5c0 5.696 4.396 10.313 9.818 10.313z" fill="#C3B214"/></svg>
